X:1
P: The Duke of Edinburgh
C: traditional, from Nan Main
C: Arr. Terry Traub, 7-30-03
M: 4/4
L: 1/8
K: A
e|"A"A<Ae>A c>BA>c|"A"e2 a>e f>e c<e|"D"d2 f>d "A"c2 A>c|"E"B>d"A"c>e "E"d/c/B/A/ G>B|"A"A<Ae>A c>BA>c|"A"e2 a>e f>e c<e|
"D"d>ef>d "A"e>cA>f|"E"e>cd>B "A"c<A A||d|"A"c<ee>A c<ef>e|"A"c<ea>e f>ec>e|"A"c<ee>A e/f/g/a/ f/e/d/c/|
"E"B>d"A"c>e "E"d/c/B/A/ G>B|"A"c>ee>A c>ef>e|"A"c>ea>e f>ec>e|"D"d>ef>d "A"e>cA>f|"A"e>c"E"d>B "A"c<A A |]
